X: 24993
T: Maid Of The Sweet Brown Knowe, The
R: jig
M: 6/8
K: Gmajor
d2c|BAB GAB|c2E F2G|ABA G2F|G3zBc|
d^cd e2f|g2B c2e|ede f2e|d3zBc|
d^cd e2f|g2B c2e|ede f2e|d3d2c|
BAB GAB|c2E F2G|ABA G2F|G3|

